SVG_Azure_All/SQL Database Ledger.svg

<?xml version="1.0" encoding="UTF-8" standalone="no"?>
<!-- Generated by Microsoft Visio, SVG Export SQL Database Ledger.svg Page-1 -->

<svg
   xmlns:dc="http://purl.org/dc/elements/1.1/"
   xmlns:cc="http://creativecommons.org/ns#"
   xmlns:rdf="http://www.w3.org/1999/02/22-rdf-syntax-ns#"
   xmlns:svg="http://www.w3.org/2000/svg"
   xmlns="http://www.w3.org/2000/svg"
   xmlns:sodipodi="http://sodipodi.sourceforge.net/DTD/sodipodi-0.dtd"
   xmlns:inkscape="http://www.inkscape.org/namespaces/inkscape"
   width="0.78744048in"
   height="0.66933262in"
   viewBox="0 0 56.695623 48.192197"
   xml:space="preserve"
   class="st6"
   version="1.1"
   id="svg106"
   sodipodi:docname="SQL Database Ledger.svg"
   style="font-size:12px;overflow:visible;color-interpolation-filters:sRGB;fill:none;fill-rule:evenodd;stroke-linecap:square;stroke-miterlimit:3"
   inkscape:version="0.92.5 (2060ec1f9f, 2020-04-08)"><metadata
   id="metadata110"><rdf:RDF><cc:Work
       rdf:about=""><dc:format>image/svg+xml</dc:format><dc:type
         rdf:resource="http://purl.org/dc/dcmitype/StillImage" /></cc:Work></rdf:RDF></metadata><sodipodi:namedview
   pagecolor="#ffffff"
   bordercolor="#666666"
   borderopacity="1"
   objecttolerance="10"
   gridtolerance="10"
   guidetolerance="10"
   inkscape:pageopacity="0"
   inkscape:pageshadow="2"
   inkscape:window-width="640"
   inkscape:window-height="480"
   id="namedview108"
   showgrid="false"
   inkscape:zoom="1.5231781"
   inkscape:cx="37.795148"
   inkscape:cy="32.115955"
   inkscape:window-x="0"
   inkscape:window-y="0"
   inkscape:window-maximized="0"
   inkscape:current-layer="svg106" />
	<style
   type="text/css"
   id="style2">
	<![CDATA[
		.st1 {fill:url(#grad0-7);stroke:none;stroke-linecap:butt;stroke-width:34}
		.st2 {fill:#0078d4;stroke:none;stroke-linecap:butt;stroke-width:34}
		.st3 {fill:#ffffff;fill-opacity:0.9;stroke:none;stroke-linecap:butt;stroke-width:34}
		.st4 {fill:#ffd400;stroke:none;stroke-linecap:butt;stroke-width:34}
		.st5 {fill:url(#grad0-33);stroke:none;stroke-linecap:butt;stroke-width:34}
		.st6 {fill:none;fill-rule:evenodd;font-size:12px;overflow:visible;stroke-linecap:square;stroke-miterlimit:3}
	]]>
	</style>

	<defs
   id="Patterns_And_Gradients">
		<linearGradient
   id="grad0-7"
   x1="0"
   y1="116.22501"
   x2="34.875306"
   y2="116.22501"
   gradientTransform="scale(1.300347,0.7690255)"
   gradientUnits="userSpaceOnUse">
			<stop
   offset="0"
   stop-color="#0078d4"
   stop-opacity="1"
   id="stop4" />
			<stop
   offset="0.5"
   stop-color="#4093e6"
   stop-opacity="1"
   id="stop6" />
			<stop
   offset="0.775"
   stop-color="#5ea0ef"
   stop-opacity="1"
   id="stop8" />
		</linearGradient>
		<linearGradient
   id="grad0-33"
   x1="-1.827158e-08"
   y1="77.756309"
   x2="27.361252"
   y2="77.756309"
   gradientTransform="scale(0.90456386,1.1055051)"
   gradientUnits="userSpaceOnUse">
			<stop
   offset="0"
   stop-color="#1f9dc4"
   stop-opacity="1"
   id="stop11" />
			<stop
   offset="0.19"
   stop-color="#28b5d9"
   stop-opacity="1"
   id="stop13" />
			<stop
   offset="0.4"
   stop-color="#2dc6e9"
   stop-opacity="1"
   id="stop15" />
			<stop
   offset="0.57"
   stop-color="#31d1f2"
   stop-opacity="1"
   id="stop17" />
			<stop
   offset="0.81"
   stop-color="#32d4f5"
   stop-opacity="1"
   id="stop19" />
		</linearGradient>
	</defs>
	<g
   id="g104"
   transform="translate(-34.000414,-33.997392)">
		<title
   id="title23">Page-1</title>
		<g
   id="group1353-1"
   transform="translate(34,-34.0157)">
			<title
   id="title25">SQL Database Ledger</title>
			<g
   id="group1354-2">
				<title
   id="title27">g34</title>
				<g
   id="group1355-3"
   transform="translate(0,-11.6951)">
					<title
   id="title29">g24</title>
					<g
   id="shape1356-4">
						<title
   id="title31">path2</title>
						<path
   d="m 0,89.38 h 45.35 v 25.31 a 1.51496,1.51637 0 0 1 -1.51,1.51 H 1.51 A 1.51811,1.51953 0 0 1 0,114.69 Z"
   class="st1"
   id="path33"
   inkscape:connector-curvature="0"
   style="fill:url(#grad0-7);stroke:none;stroke-width:34;stroke-linecap:butt" />
					</g>
					<g
   id="shape1357-8"
   transform="translate(0,-26.8218)">
						<title
   id="title36">path4</title>
						<path
   d="m 1.52,106.53 h 42.29 a 1.51496,1.51637 0 0 1 1.52,1.52 v 8.15 H 0 v -8.15 a 1.51496,1.51637 0 0 1 1.51,-1.52 z"
   class="st2"
   id="path38"
   inkscape:connector-curvature="0"
   style="fill:#0078d4;stroke:none;stroke-width:34;stroke-linecap:butt" />
					</g>
					<g
   id="shape1358-10"
   transform="translate(4.8126,-18.3226)">
						<title
   id="title41">rect6</title>
						<path
   d="m 0,115.45 a 0.755923,0.756628 -180 0 0 0.755905,0.75661 L 8.98,116.2 a 0.755923,0.756628 -180 0 0 0.755905,-0.75661 L 9.74,112.02 A 0.755923,0.756628 -180 0 0 8.984095,111.26339 L 0.76,111.26 a 0.755923,0.756628 -180 0 0 -0.755905,0.75661 z"
   class="st3"
   id="path43"
   inkscape:connector-curvature="0"
   style="fill:#ffffff;fill-opacity:0.9;stroke:none;stroke-width:34;stroke-linecap:butt" />
					</g>
					<g
   id="shape1359-12"
   transform="translate(17.874,-18.3951)">
						<title
   id="title46">rect8</title>
						<path
   d="m 0,115.45 a 0.755923,0.756628 -180 0 0 0.755905,0.75661 L 8.98,116.2 a 0.755923,0.756628 -180 0 0 0.755905,-0.75661 L 9.74,112.02 A 0.755923,0.756628 -180 0 0 8.984095,111.26339 L 0.76,111.26 a 0.755923,0.756628 -180 0 0 -0.755905,0.75661 z"
   class="st3"
   id="path48"
   inkscape:connector-curvature="0"
   style="fill:#ffffff;fill-opacity:0.9;stroke:none;stroke-width:34;stroke-linecap:butt" />
					</g>
					<g
   id="shape1360-14"
   transform="translate(30.9323,-18.3951)">
						<title
   id="title51">rect10</title>
						<path
   d="m 0,115.45 a 0.755923,0.756628 -180 0 0 0.755905,0.75661 L 8.98,116.2 a 0.755923,0.756628 -180 0 0 0.755905,-0.75661 L 9.74,112.02 A 0.755923,0.756628 -180 0 0 8.984095,111.26339 L 0.76,111.26 a 0.755923,0.756628 -180 0 0 -0.755905,0.75661 z"
   class="st3"
   id="path53"
   inkscape:connector-curvature="0"
   style="fill:#ffffff;fill-opacity:0.9;stroke:none;stroke-width:34;stroke-linecap:butt" />
					</g>
					<g
   id="shape1361-16"
   transform="translate(4.95748,-11.2609)">
						<title
   id="title56">rect12</title>
						<path
   d="m 0,115.45 a 0.755923,0.756628 -180 0 0 0.755905,0.75661 L 8.98,116.2 a 0.755923,0.756628 -180 0 0 0.755905,-0.75661 L 9.74,112.02 A 0.755923,0.756628 -180 0 0 8.984095,111.26339 L 0.76,111.26 a 0.755923,0.756628 -180 0 0 -0.755905,0.75661 z"
   class="st3"
   id="path58"
   inkscape:connector-curvature="0"
   style="fill:#ffffff;fill-opacity:0.9;stroke:none;stroke-width:34;stroke-linecap:butt" />
					</g>
					<g
   id="shape1362-18"
   transform="translate(18.0157,-11.3302)">
						<title
   id="title61">rect14</title>
						<path
   d="m 0,115.45 a 0.755923,0.756628 -180 0 0 0.755905,0.75661 L 8.98,116.2 a 0.755923,0.756628 -180 0 0 0.755905,-0.75661 L 9.74,112.02 A 0.755923,0.756628 -180 0 0 8.984095,111.26339 L 0.76,111.26 a 0.755923,0.756628 -180 0 0 -0.755905,0.75661 z"
   class="st4"
   id="path63"
   inkscape:connector-curvature="0"
   style="fill:#ffd400;stroke:none;stroke-width:34;stroke-linecap:butt" />
					</g>
					<g
   id="shape1363-20"
   transform="translate(31.0772,-11.3302)">
						<title
   id="title66">rect16</title>
						<path
   d="m 0,115.45 a 0.755923,0.756628 -180 0 0 0.755905,0.75661 L 8.98,116.2 a 0.755923,0.756628 -180 0 0 0.755905,-0.75661 L 9.74,112.02 A 0.755923,0.756628 -180 0 0 8.984095,111.26339 L 0.76,111.26 a 0.755923,0.756628 -180 0 0 -0.755905,0.75661 z"
   class="st4"
   id="path68"
   inkscape:connector-curvature="0"
   style="fill:#ffd400;stroke:none;stroke-width:34;stroke-linecap:butt" />
					</g>
					<g
   id="shape1364-22"
   transform="translate(4.95748,-4.12668)">
						<title
   id="title71">rect18</title>
						<path
   d="m 0,115.45 a 0.755923,0.756628 -180 0 0 0.755905,0.75661 L 8.98,116.2 a 0.755923,0.756628 -180 0 0 0.755905,-0.75661 L 9.74,112.02 A 0.755923,0.756628 -180 0 0 8.984095,111.26339 L 0.76,111.26 a 0.755923,0.756628 -180 0 0 -0.755905,0.75661 z"
   class="st4"
   id="path73"
   inkscape:connector-curvature="0"
   style="fill:#ffd400;stroke:none;stroke-width:34;stroke-linecap:butt" />
					</g>
					<g
   id="shape1365-24"
   transform="translate(18.0157,-4.19604)">
						<title
   id="title76">rect20</title>
						<path
   d="m 0,115.45 a 0.755923,0.756628 -180 0 0 0.755905,0.75661 L 8.98,116.2 a 0.755923,0.756628 -180 0 0 0.755905,-0.75661 L 9.74,112.02 A 0.755923,0.756628 -180 0 0 8.984095,111.26339 L 0.76,111.26 a 0.755923,0.756628 -180 0 0 -0.755905,0.75661 z"
   class="st4"
   id="path78"
   inkscape:connector-curvature="0"
   style="fill:#ffd400;stroke:none;stroke-width:34;stroke-linecap:butt" />
					</g>
					<g
   id="shape1366-26"
   transform="translate(31.0772,-4.19604)">
						<title
   id="title81">rect22</title>
						<path
   d="m 0,115.45 a 0.755923,0.756628 -180 0 0 0.755905,0.75661 L 8.98,116.2 a 0.755923,0.756628 -180 0 0 0.755905,-0.75661 L 9.74,112.02 A 0.755923,0.756628 -180 0 0 8.984095,111.26339 L 0.76,111.26 a 0.755923,0.756628 -180 0 0 -0.755905,0.75661 z"
   class="st4"
   id="path83"
   inkscape:connector-curvature="0"
   style="fill:#ffd400;stroke:none;stroke-width:34;stroke-linecap:butt" />
					</g>
				</g>
				<g
   id="shape1367-28"
   transform="translate(29.726)">
					<title
   id="title87">path26</title>
					<path
   d="m 26.97,98.62 c 0,8.87 -10.71,16.01 -13.04,17.46 a 0.850394,0.851187 0 0 1 -0.888189,0 C 10.71,114.63 0,107.49 0,98.62 V 87.96 A 0.850394,0.851187 0 0 1 0.828346,87.111966 C 9.16,86.89 7.24,83.23 13.48,83.23 c 6.25,0 4.33,3.66 12.66,3.88 a 0.850394,0.851187 0 0 1 0.828346,0.848034 z"
   class="st2"
   id="path89"
   inkscape:connector-curvature="0"
   style="fill:#0078d4;stroke:none;stroke-width:34;stroke-linecap:butt" />
				</g>
				<g
   id="shape1368-30"
   transform="translate(30.8283,-1.34396)">
					<title
   id="title92">path28</title>
					<path
   d="m 24.75,100.07 c 0,8.14 -9.82,14.69 -11.97,16.02 a 0.759055,0.759763 0 0 1 -0.812598,0 C 9.83,114.76 0,108.21 0,100.07 V 90.3 A 0.774803,0.775526 0 0 1 0.759056,89.524474 C 8.4,89.32 6.64,85.96 12.37,85.96 c 5.72,0 3.96,3.36 11.6,3.57 a 0.781102,0.781831 0 0 1 0.762205,0.775526 z"
   class="st5"
   id="path94"
   inkscape:connector-curvature="0"
   style="fill:url(#grad0-33);stroke:none;stroke-width:34;stroke-linecap:butt" />
				</g>
				<g
   id="shape1369-34"
   transform="translate(36.7407,-10.9322)">
					<title
   id="title97">path30</title>
					<path
   d="m 14.34,106.07 -0.68,-0.69 a 1.17165,1.17275 -180 0 0 -1.65,0 L 5.4,112 2.68,109.28 a 1.16535,1.16644 -180 0 0 -1.65,0 l -0.69,0.68 a 1.1685,1.16959 -180 0 0 0,1.66 l 4.24,4.24 a 1.15906,1.16014 -180 0 0 0.82,0.34 1.1748,1.1759 -180 0 0 0.83,-0.34 l 8.12,-8.14 a 1.16535,1.16644 -180 0 0 -0.01,-1.65 z"
   class="st2"
   id="path99"
   inkscape:connector-curvature="0"
   style="fill:#0078d4;stroke:none;stroke-width:34;stroke-linecap:butt" />
				</g>
			</g>
		</g>
	</g>
</svg>

<?xml version="1.0" encoding="UTF-8" standalone="no"?>
<!DOCTYPE svg PUBLIC "-//W3C//DTD SVG 1.1//EN" "http://www.w3.org/Graphics/SVG/1.1/DTD/svg11.dtd">
<!-- Generated by Microsoft Visio, SVG Export SQL Database Ledger.svg Page-1 -->
<svg xmlns="http://www.w3.org/2000/svg" xmlns:xlink="http://www.w3.org/1999/xlink" xmlns:ev="http://www.w3.org/2001/xml-events"
		width="1.73185in" height="1.61395in" viewBox="0 0 124.693 116.205" xml:space="preserve" color-interpolation-filters="sRGB"
		class="st6">
	<style type="text/css">
	<![CDATA[
		.st1 {fill:url(#grad0-7);stroke:none;stroke-linecap:butt;stroke-width:34}
		.st2 {fill:#0078d4;stroke:none;stroke-linecap:butt;stroke-width:34}
		.st3 {fill:#ffffff;fill-opacity:0.9;stroke:none;stroke-linecap:butt;stroke-width:34}
		.st4 {fill:#ffd400;stroke:none;stroke-linecap:butt;stroke-width:34}
		.st5 {fill:url(#grad0-33);stroke:none;stroke-linecap:butt;stroke-width:34}
		.st6 {fill:none;fill-rule:evenodd;font-size:12px;overflow:visible;stroke-linecap:square;stroke-miterlimit:3}
	]]>
	</style>

	<defs id="Patterns_And_Gradients">
		<linearGradient id="grad0-7" x1="0" y1="0" x2="1" y2="0" gradientTransform="rotate(-90 0.5 0.5)">
			<stop offset="0" stop-color="#0078d4" stop-opacity="1"/>
			<stop offset="0.5" stop-color="#4093e6" stop-opacity="1"/>
			<stop offset="0.775" stop-color="#5ea0ef" stop-opacity="1"/>
		</linearGradient>
		<linearGradient id="grad0-33" x1="0" y1="0" x2="1" y2="0" gradientTransform="rotate(-90 0.5 0.5)">
			<stop offset="0" stop-color="#1f9dc4" stop-opacity="1"/>
			<stop offset="0.19" stop-color="#28b5d9" stop-opacity="1"/>
			<stop offset="0.4" stop-color="#2dc6e9" stop-opacity="1"/>
			<stop offset="0.57" stop-color="#31d1f2" stop-opacity="1"/>
			<stop offset="0.81" stop-color="#32d4f5" stop-opacity="1"/>
		</linearGradient>
	</defs>
	<g>
		<title>Page-1</title>
		<g id="group1338-1" transform="translate(34,-34.0157)">
			<title>SQL Database Ledger</title>
			<g id="group1339-2">
				<title>g34</title>
				<g id="group1340-3" transform="translate(0,-11.6951)">
					<title>g24</title>
					<g id="shape1341-4">
						<title>path2</title>
						<path d="M0 89.38 L45.35 89.38 L45.35 114.69 A1.51496 1.51637 0 0 1 43.84 116.2 L1.51 116.2 A1.51811 1.51953
									 0 0 1 0 114.69 L0 89.38 Z" class="st1"/>
					</g>
					<g id="shape1342-8" transform="translate(0,-26.8218)">
						<title>path4</title>
						<path d="M1.52 106.53 L43.81 106.53 A1.51496 1.51637 0 0 1 45.33 108.05 L45.33 116.2 L0 116.2 L0 108.05 A1.51496
									 1.51637 0 0 1 1.51 106.53 L1.52 106.53 Z" class="st2"/>
					</g>
					<g id="shape1343-10" transform="translate(4.8126,-18.3226)">
						<title>rect6</title>
						<path d="M0 115.45 a0.755923 0.756628 -180 0 0 0.755905 0.756611 L8.98 116.2 a0.755923 0.756628 -180 0 0
									 0.755905 -0.756611 L9.74 112.02 a0.755923 0.756628 -180 0 0 -0.755905 -0.756611 L0.76 111.26
									 a0.755923 0.756628 -180 0 0 -0.755905 0.756611 L0 115.45 Z" class="st3"/>
					</g>
					<g id="shape1344-12" transform="translate(17.874,-18.3951)">
						<title>rect8</title>
						<path d="M0 115.45 a0.755923 0.756628 -180 0 0 0.755905 0.756611 L8.98 116.2 a0.755923 0.756628 -180 0 0
									 0.755905 -0.756611 L9.74 112.02 a0.755923 0.756628 -180 0 0 -0.755905 -0.756611 L0.76 111.26
									 a0.755923 0.756628 -180 0 0 -0.755905 0.756611 L0 115.45 Z" class="st3"/>
					</g>
					<g id="shape1345-14" transform="translate(30.9323,-18.3951)">
						<title>rect10</title>
						<path d="M0 115.45 a0.755923 0.756628 -180 0 0 0.755905 0.756611 L8.98 116.2 a0.755923 0.756628 -180 0 0
									 0.755905 -0.756611 L9.74 112.02 a0.755923 0.756628 -180 0 0 -0.755905 -0.756611 L0.76 111.26
									 a0.755923 0.756628 -180 0 0 -0.755905 0.756611 L0 115.45 Z" class="st3"/>
					</g>
					<g id="shape1346-16" transform="translate(4.95748,-11.2609)">
						<title>rect12</title>
						<path d="M0 115.45 a0.755923 0.756628 -180 0 0 0.755905 0.756611 L8.98 116.2 a0.755923 0.756628 -180 0 0
									 0.755905 -0.756611 L9.74 112.02 a0.755923 0.756628 -180 0 0 -0.755905 -0.756611 L0.76 111.26
									 a0.755923 0.756628 -180 0 0 -0.755905 0.756611 L0 115.45 Z" class="st3"/>
					</g>
					<g id="shape1347-18" transform="translate(18.0157,-11.3302)">
						<title>rect14</title>
						<path d="M0 115.45 a0.755923 0.756628 -180 0 0 0.755905 0.756611 L8.98 116.2 a0.755923 0.756628 -180 0 0
									 0.755905 -0.756611 L9.74 112.02 a0.755923 0.756628 -180 0 0 -0.755905 -0.756611 L0.76 111.26
									 a0.755923 0.756628 -180 0 0 -0.755905 0.756611 L0 115.45 Z" class="st4"/>
					</g>
					<g id="shape1348-20" transform="translate(31.0772,-11.3302)">
						<title>rect16</title>
						<path d="M0 115.45 a0.755923 0.756628 -180 0 0 0.755905 0.756611 L8.98 116.2 a0.755923 0.756628 -180 0 0
									 0.755905 -0.756611 L9.74 112.02 a0.755923 0.756628 -180 0 0 -0.755905 -0.756611 L0.76 111.26
									 a0.755923 0.756628 -180 0 0 -0.755905 0.756611 L0 115.45 Z" class="st4"/>
					</g>
					<g id="shape1349-22" transform="translate(4.95748,-4.12668)">
						<title>rect18</title>
						<path d="M0 115.45 a0.755923 0.756628 -180 0 0 0.755905 0.756611 L8.98 116.2 a0.755923 0.756628 -180 0 0
									 0.755905 -0.756611 L9.74 112.02 a0.755923 0.756628 -180 0 0 -0.755905 -0.756611 L0.76 111.26
									 a0.755923 0.756628 -180 0 0 -0.755905 0.756611 L0 115.45 Z" class="st4"/>
					</g>
					<g id="shape1350-24" transform="translate(18.0157,-4.19604)">
						<title>rect20</title>
						<path d="M0 115.45 a0.755923 0.756628 -180 0 0 0.755905 0.756611 L8.98 116.2 a0.755923 0.756628 -180 0 0
									 0.755905 -0.756611 L9.74 112.02 a0.755923 0.756628 -180 0 0 -0.755905 -0.756611 L0.76 111.26
									 a0.755923 0.756628 -180 0 0 -0.755905 0.756611 L0 115.45 Z" class="st4"/>
					</g>
					<g id="shape1351-26" transform="translate(31.0772,-4.19604)">
						<title>rect22</title>
						<path d="M0 115.45 a0.755923 0.756628 -180 0 0 0.755905 0.756611 L8.98 116.2 a0.755923 0.756628 -180 0 0
									 0.755905 -0.756611 L9.74 112.02 a0.755923 0.756628 -180 0 0 -0.755905 -0.756611 L0.76 111.26
									 a0.755923 0.756628 -180 0 0 -0.755905 0.756611 L0 115.45 Z" class="st4"/>
					</g>
				</g>
				<g id="shape1352-28" transform="translate(29.726,1.42109E-14)">
					<title>path26</title>
					<path d="M26.97 98.62 C26.97 107.49 16.26 114.63 13.93 116.08 a0.850394 0.851187 0 0 1 -0.888189 -1.42109E-14
								 C10.71 114.63 0 107.49 0 98.62 L0 87.96 a0.850394 0.851187 0 0 1 0.828346 -0.848034 C9.16 86.89
								 7.24 83.23 13.48 83.23 C19.73 83.23 17.81 86.89 26.14 87.11 a0.850394 0.851187 0 0 1 0.828346 0.848034
								 L26.97 98.62 Z" class="st2"/>
				</g>
				<g id="shape1353-30" transform="translate(30.8283,-1.34396)">
					<title>path28</title>
					<path d="M24.75 100.07 C24.75 108.21 14.93 114.76 12.78 116.09 a0.759055 0.759763 0 0 1 -0.812598 1.42109E-14
								 C9.83 114.76 0 108.21 0 100.07 L0 90.3 a0.774803 0.775526 0 0 1 0.759056 -0.775526 C8.4 89.32 6.64
								 85.96 12.37 85.96 C18.09 85.96 16.33 89.32 23.97 89.53 a0.781102 0.781831 0 0 1 0.762205 0.775526
								 L24.75 100.07 Z" class="st5"/>
				</g>
				<g id="shape1354-34" transform="translate(36.7407,-10.9322)">
					<title>path30</title>
					<path d="M14.34 106.07 L13.66 105.38 A1.17165 1.17275 -180 0 0 12.01 105.38 L5.4 112 L2.68 109.28 A1.16535 1.16644
								 -180 0 0 1.03 109.28 L0.34 109.96 A1.1685 1.16959 -180 0 0 0.34 111.62 L4.58 115.86 A1.15906 1.16014
								 -180 0 0 5.4 116.2 A1.1748 1.1759 -180 0 0 6.23 115.86 L14.35 107.72 A1.16535 1.16644 -180 0 0 14.34
								 106.07 Z" class="st2"/>
				</g>
			</g>
		</g>
	</g>
</svg>
